X: 1
T: Whinham's Reel
C: Robert Whinham
R: Polka
L: 1/8
M: 2/4
K: G
Z: ABC transcription by Verge Roller
|: D | "G" G/A/B/A/ GD | "C" EG "G" D2  | "C" EG "G" DG | "D" BA AD |
"G" G/A/B/A/ GD | "C" EG "G" D2 | "C" EG "D" Fd/c/ | "G" BG G :|
(3d/e/f/ | "G" gG Bg | "D" fG "C" ce | "G" dD GB | "D" c/B/A/B/ c/d/e/f/ |
"G" gG Bg | "D" fG "C" ce | "G" dD "D" Fd/c/ | "G" BG G :|
r: 32
